X: 17
T: America
P: Longways for as many as will
%R: reel
B: "The Dancing-Master: Containing Directions and Tunes for Dancing" printed by W. Pearson for John Walsh, London ca. 1709
S: 7: DMDfD http://digital.nls.uk/special-collections-of-printed-music/pageturner.cfm?id=89751228 p.306
Z: 2013 John Chambers <jc:trillian.mit.edu>
N: Repeats added to satisfy the dance instructions.
M: C|
L: 1/8
K: Dm
% - - - - - - - - - - - - - - - - - - - - - - - - -
A2 | d2D2 F2A2 | B2(AG) A2c2 | (fe)(dc) (BA)(GF) | F6 :|\
c2 | G2B2 A2d2 | A2 (A/B/c) =B2AG | c3d (c/d/e) (dc) | c6 |:\
"^:S:"e2 | f2d2 e2^c2 | d2=B2 ^c2(BA) | d3e (d/e/f) (ed) | d6 :|
% - - - - - - - - - - Dance description: - - - - - - - - - -
%%begintext align
%% The 1. cu. leads through the 2. cu. .| The w. cu. leads through the 1. cu :| The 1. man change places
%% with the 2. wo. the 1. wo. with the 2. man, then right and left quite round, the 1. cu. Figure through
%% the 2. cu. .|
%% [DMDfD]
%%endtext
%%sep 1 1 300
%%text: Note: The last Strain once, and the Repeat over again.
%%sep 1 8 500

%%sep 1 1 500
%%sep 1 1 500
